build/Karasa-Jaga/scalable/actions/document-print-symbolic.svg

<?xml version="1.0" encoding="UTF-8" standalone="no"?>
<!-- Created with Inkscape (http://www.inkscape.org/) -->

<svg
   xmlns:dc="http://purl.org/dc/elements/1.1/"
   xmlns:cc="http://creativecommons.org/ns#"
   xmlns:rdf="http://www.w3.org/1999/02/22-rdf-syntax-ns#"
   xmlns:svg="http://www.w3.org/2000/svg"
   xmlns="http://www.w3.org/2000/svg"
   xmlns:sodipodi="http://sodipodi.sourceforge.net/DTD/sodipodi-0.dtd"
   xmlns:inkscape="http://www.inkscape.org/namespaces/inkscape"
   id="svg7854"
   height="16"
   width="16"
   version="1.0"
   inkscape:version="0.92.4 (unknown)"
   sodipodi:docname="document-print-symbolic.svg"
   inkscape:export-filename="/usr/share/icons/Karasa Jaga/scalable/status/media-playlist-repeat.png"
   inkscape:export-xdpi="90"
   inkscape:export-ydpi="90">
  <metadata
     id="metadata5314">
    <rdf:RDF>
      <cc:Work
         rdf:about="">
        <dc:format>image/svg+xml</dc:format>
        <dc:type
           rdf:resource="http://purl.org/dc/dcmitype/StillImage" />
        <dc:title></dc:title>
      </cc:Work>
    </rdf:RDF>
  </metadata>
  <sodipodi:namedview
     pagecolor="#ffffff"
     bordercolor="#666666"
     borderopacity="1"
     objecttolerance="10"
     gridtolerance="10"
     guidetolerance="10"
     inkscape:pageopacity="0"
     inkscape:pageshadow="2"
     inkscape:window-width="1366"
     inkscape:window-height="714"
     id="namedview5312"
     showgrid="true"
     inkscape:zoom="55.625736"
     inkscape:cx="8.8828216"
     inkscape:cy="3.6004628"
     inkscape:window-x="0"
     inkscape:window-y="28"
     inkscape:window-maximized="1"
     inkscape:current-layer="svg7854">
    <inkscape:grid
       type="xygrid"
       id="grid830" />
  </sodipodi:namedview>
  <defs
     id="defs7856">
    <linearGradient
       id="linearGradient5841">
      <stop
         style="stop-color:#37e700;stop-opacity:1;"
         offset="0"
         id="stop5843" />
      <stop
         id="stop5849"
         offset="0.5"
         style="stop-color:#3dfe00;stop-opacity:1;" />
      <stop
         style="stop-color:#2aad00;stop-opacity:1;"
         offset="1"
         id="stop5845" />
    </linearGradient>
    <linearGradient
       id="linearGradient4117"
       y2="34.612"
       gradientUnits="userSpaceOnUse"
       x2="22.402"
       y1="15.722"
       x1="22.146999">
      <stop
         id="stop4113"
         style="stop-color:#fff"
         offset="0" />
      <stop
         id="stop4115"
         style="stop-color:#fff;stop-opacity:0"
         offset="1" />
    </linearGradient>
    <linearGradient
       id="linearGradient3696"
       y2="21"
       gradientUnits="userSpaceOnUse"
       x2="15"
       y1="2"
       x1="15">
      <stop
         id="stop3700"
         style="stop-color:#eeeeec"
         offset="0" />
      <stop
         id="stop3702"
         style="stop-color:#babdb6"
         offset=".79220" />
      <stop
         id="stop3704"
         style="stop-color:#a1a59b"
         offset="1" />
    </linearGradient>
    <filter
       id="filter7554"
       color-interpolation-filters="sRGB">
      <feBlend
         mode="darken"
         in2="BackgroundImage"
         id="feBlend7556" />
    </filter>
    <filter
       id="filter7554-7"
       color-interpolation-filters="sRGB">
      <feBlend
         mode="darken"
         in2="BackgroundImage"
         id="feBlend7556-6" />
    </filter>
  </defs>
  <g
     id="g81"
     transform="translate(-0.0015382,-0.3769531)">
    <path
       id="rect363"
       d="m 5.0015382,1.3769531 2e-7,5 h 1 l -2e-7,-4 h 3.9999998 l 0,4 h 1 l 0,-5 z"
       style="fill:#bebebe;fill-opacity:1;stroke-width:1.05632913"
       inkscape:connector-curvature="0"
       sodipodi:nodetypes="ccccccccc" />
    <path
       style="fill:#bebebe;fill-opacity:1"
       d="m 2.6542969,5.3730469 -0.125,0.34375 h -0.46875 c -0.4294694,0.4522647 -0.6352799,0.8914838 -0.8125,1.34375 -0.1625648,2.0729246 -0.1625648,2.9584401 0,5.0312501 h 0.21875 1.8125 v -1.28125 c 0,-0.06541 0.012822,-0.129403 0.03125,-0.1875 v -0.09375 c 0,-0.264852 0.229098,-0.5 0.5,-0.5 h 8.3437501 c 0.2709,0 0.5,0.235148 0.5,0.5 v 0.09375 c 0.0185,0.05809 0.03125,0.122041 0.03125,0.1875 v 1.28125 h 1.8125 0.21875 c 0.162677,-2.07281 0.162677,-2.9583255 0,-5.0312501 -0.208087,-0.425576 -0.337074,-0.7975356 -0.8125,-1.34375 h -0.46875 l -0.125,-0.34375 h -1.0625 l 0.09375,0.34375 H 12 V 6 H 4 L 4.029297,5.7167969 h -0.4375 l 0.0625,-0.34375 z M 4,7 h 8 V 9 H 4 Z m 9.373047,2.1542969 c 0.238663,0 0.40625,0.1991469 0.40625,0.4375 0,0.238667 -0.167587,0.4375001 -0.40625,0.4375001 -0.23851,0 -0.4375,-0.1988331 -0.4375,-0.4375001 0,-0.2383531 0.19899,-0.4373405 0.4375,-0.4375 z m -0.0625,1.1562501 c 0.174437,0 0.3125,0.138177 0.3125,0.3125 0,0.174551 -0.138061,0.34375 -0.3125,0.34375 -0.174436,0 -0.3125,-0.169199 -0.3125,-0.34375 0,-0.174323 0.138064,-0.312615 0.3125,-0.3125 z m -12.1250001,1.8125 0.1875,0.84375 c 0.012532,0.07898 0.058638,0.08683 0.125,0.09375 l 1.9375,-0.03125 -0.03125,-0.875 z m 13.6875001,0 -2.25,0.03125 -0.03125,0.875 1.9375,0.03125 c 0.06636,-0.007 0.143732,-0.01477 0.15625,-0.09375 z m -13.2304689,0.371094 1.4082031,0.02148 0.00586,0.154297 -1.3691406,0.02148 z m 12.7734379,0 -0.04492,0.199218 -1.400391,-0.02344 0.0059,-0.154297 z"
       transform="translate(0.0015382,0.3769531)"
       id="polygon76"
       inkscape:connector-curvature="0"
       sodipodi:nodetypes="cccccccscsssscsccccccccccccccccccccccsssccsssccccccccccccccccccccccc" />
    <path
       id="rect4186"
       d="m 5.0015382,11.376953 -0.5,4.5 h 6.9101558 l -0.410156,-4.5 z m 0.5,0.5 h 4.9999998 l 0.345703,3.355468 H 5.155835 Z"
       style="fill:#bebebe;fill-opacity:1"
       inkscape:connector-curvature="0"
       sodipodi:nodetypes="cccccccccc" />
  </g>
</svg>

<?xml version="1.0" encoding="UTF-8" standalone="no"?>
<!-- Created with Inkscape (http://www.inkscape.org/) -->

<svg
   xmlns:dc="http://purl.org/dc/elements/1.1/"
   xmlns:cc="http://creativecommons.org/ns#"
   xmlns:rdf="http://www.w3.org/1999/02/22-rdf-syntax-ns#"
   xmlns:svg="http://www.w3.org/2000/svg"
   xmlns="http://www.w3.org/2000/svg"
   xmlns:sodipodi="http://sodipodi.sourceforge.net/DTD/sodipodi-0.dtd"
   xmlns:inkscape="http://www.inkscape.org/namespaces/inkscape"
   id="svg7854"
   height="16"
   width="16"
   version="1.0"
   inkscape:version="0.92.2 (unknown)"
   sodipodi:docname="document-print-symbolic.svg"
   inkscape:export-filename="/usr/share/icons/Karasa Jaga/scalable/status/media-playlist-repeat.png"
   inkscape:export-xdpi="90"
   inkscape:export-ydpi="90">
  <metadata
     id="metadata5314">
    <rdf:RDF>
      <cc:Work
         rdf:about="">
        <dc:format>image/svg+xml</dc:format>
        <dc:type
           rdf:resource="http://purl.org/dc/dcmitype/StillImage" />
        <dc:title></dc:title>
      </cc:Work>
    </rdf:RDF>
  </metadata>
  <sodipodi:namedview
     pagecolor="#ffffff"
     bordercolor="#666666"
     borderopacity="1"
     objecttolerance="10"
     gridtolerance="10"
     guidetolerance="10"
     inkscape:pageopacity="0"
     inkscape:pageshadow="2"
     inkscape:window-width="1366"
     inkscape:window-height="706"
     id="namedview5312"
     showgrid="false"
     inkscape:zoom="9.8333338"
     inkscape:cx="21.780113"
     inkscape:cy="1.9460584"
     inkscape:window-x="0"
     inkscape:window-y="0"
     inkscape:window-maximized="1"
     inkscape:current-layer="svg7854" />
  <defs
     id="defs7856">
    <linearGradient
       id="linearGradient5841">
      <stop
         style="stop-color:#37e700;stop-opacity:1;"
         offset="0"
         id="stop5843" />
      <stop
         id="stop5849"
         offset="0.5"
         style="stop-color:#3dfe00;stop-opacity:1;" />
      <stop
         style="stop-color:#2aad00;stop-opacity:1;"
         offset="1"
         id="stop5845" />
    </linearGradient>
    <linearGradient
       id="linearGradient4117"
       y2="34.612"
       gradientUnits="userSpaceOnUse"
       x2="22.402"
       y1="15.722"
       x1="22.146999">
      <stop
         id="stop4113"
         style="stop-color:#fff"
         offset="0" />
      <stop
         id="stop4115"
         style="stop-color:#fff;stop-opacity:0"
         offset="1" />
    </linearGradient>
    <linearGradient
       id="linearGradient3696"
       y2="21"
       gradientUnits="userSpaceOnUse"
       x2="15"
       y1="2"
       x1="15">
      <stop
         id="stop3700"
         style="stop-color:#eeeeec"
         offset="0" />
      <stop
         id="stop3702"
         style="stop-color:#babdb6"
         offset=".79220" />
      <stop
         id="stop3704"
         style="stop-color:#a1a59b"
         offset="1" />
    </linearGradient>
    <filter
       id="filter7554"
       color-interpolation-filters="sRGB">
      <feBlend
         mode="darken"
         in2="BackgroundImage"
         id="feBlend7556" />
    </filter>
    <filter
       id="filter7554-7"
       color-interpolation-filters="sRGB">
      <feBlend
         mode="darken"
         in2="BackgroundImage"
         id="feBlend7556-6" />
    </filter>
  </defs>
  <g
     id="g81"
     transform="translate(-0.0015382,-0.3769531)">
    <path
       id="rect363"
       d="M 4.46875,1.2382812 V 6.78125 H 5.1777344 V 1.9160156 H 10.822266 V 6.78125 H 11.5 V 1.2382812 Z"
       style="fill:#bebebe;fill-opacity:1;stroke-width:1.05632913"
       inkscape:connector-curvature="0" />
    <path
       style="fill:#bebebe;fill-opacity:1"
       d="M 2.6542969 5.3730469 L 2.5292969 5.7167969 L 2.0605469 5.7167969 C 1.6310775 6.1690616 1.425267 6.6082807 1.2480469 7.0605469 C 1.0854821 9.1334715 1.0854821 10.018987 1.2480469 12.091797 L 1.4667969 12.091797 L 3.2792969 12.091797 L 3.2792969 10.810547 C 3.2792969 10.745137 3.2921189 10.681144 3.3105469 10.623047 L 3.3105469 10.529297 C 3.3105469 10.264445 3.5396449 10.029297 3.8105469 10.029297 L 12.154297 10.029297 C 12.425197 10.029297 12.654297 10.264445 12.654297 10.529297 L 12.654297 10.623047 C 12.672797 10.681137 12.685547 10.745088 12.685547 10.810547 L 12.685547 12.091797 L 14.498047 12.091797 L 14.716797 12.091797 C 14.879474 10.018987 14.879474 9.1334715 14.716797 7.0605469 C 14.50871 6.6349709 14.379723 6.2630113 13.904297 5.7167969 L 13.435547 5.7167969 L 13.310547 5.3730469 L 12.248047 5.3730469 L 12.341797 5.7167969 L 11.935547 5.7167969 L 11.935547 6.6230469 L 4.0292969 6.6230469 L 4.0292969 5.7167969 L 3.5917969 5.7167969 L 3.6542969 5.3730469 L 2.6542969 5.3730469 z M 4.1679688 6.9960938 L 11.828125 6.9960938 L 11.828125 9.1269531 L 4.1679688 9.1269531 L 4.1679688 6.9960938 z M 13.373047 9.1542969 C 13.61171 9.1542969 13.779297 9.3534438 13.779297 9.5917969 C 13.779297 9.8304639 13.61171 10.029297 13.373047 10.029297 C 13.134537 10.029297 12.935547 9.8304639 12.935547 9.5917969 C 12.935547 9.3534438 13.134537 9.1544564 13.373047 9.1542969 z M 13.310547 10.310547 C 13.484984 10.310547 13.623047 10.448724 13.623047 10.623047 C 13.623047 10.797598 13.484986 10.966797 13.310547 10.966797 C 13.136111 10.966797 12.998047 10.797598 12.998047 10.623047 C 12.998047 10.448724 13.136111 10.310432 13.310547 10.310547 z M 1.1855469 12.123047 L 1.3730469 12.966797 C 1.3855789 13.045777 1.4316849 13.053627 1.4980469 13.060547 L 3.4355469 13.029297 L 3.4042969 12.154297 L 1.1855469 12.123047 z M 14.873047 12.123047 L 12.623047 12.154297 L 12.591797 13.029297 L 14.529297 13.060547 C 14.595657 13.053547 14.673029 13.045777 14.685547 12.966797 L 14.873047 12.123047 z M 1.6425781 12.494141 L 3.0507812 12.515625 L 3.0566406 12.669922 L 1.6875 12.691406 L 1.6425781 12.494141 z M 14.416016 12.494141 L 14.371094 12.693359 L 12.970703 12.669922 L 12.976562 12.515625 L 14.416016 12.494141 z "
       transform="translate(0.0015382,0.3769531)"
       id="polygon76" />
    <path
       id="rect4186"
       d="m 4.7871094,11.308594 -0.4550782,4.207031 h 7.3046878 l -0.455078,-4.207031 z m 0.5351562,0.376953 h 5.3242184 l 0.38086,3.478515 H 4.9414062 Z"
       style="fill:#bebebe;fill-opacity:1"
       inkscape:connector-curvature="0" />
  </g>
</svg>
